dist/svgs/unicons/monochrome/wordpress.svg

<svg xmlns="http://www.w3.org/2000/svg" data-name="Layer 1" viewBox="0 0 24 24"><path class="uim-quaternary" d="M12,2.6A9.4,9.4,0,1,0,21.4,12,9.4,9.4,0,0,0,12,2.6Z"/><path class="uim-primary" d="M12.14648 12.72858L9.64575 19.99377a8.33685 8.33685 0 0 0 5.12171-.13293.74428.74428 0 0 1-.0597-.11487zM3.66675 11.99963a8.33374 8.33374 0 0 0 4.69678 7.4997L4.38818 8.60834A8.30011 8.30011 0 0 0 3.66675 11.99963z"/><path class="uim-primary" d="M17.62573,11.57941a4.38889,4.38889,0,0,0-.687-2.29816,3.90279,3.90279,0,0,1-.8186-1.95453,1.4429,1.4429,0,0,1,1.39941-1.47894c.037,0,.072.00445.10791.00671A8.3314,8.3314,0,0,0,5.03735,7.42255c.19556.00622.37989.01013.53626.01013.87146,0,2.22107-.106,2.22107-.106a.34448.34448,0,0,1,.05322.68677s-.45166.05286-.95361.07916l3.03442,9.02649,1.824-5.4693L10.45435,8.09265c-.449-.0263-.874-.07916-.874-.07916a.34447.34447,0,0,1,.053-.68677s1.37586.106,2.19458.106c.87146,0,2.22131-.106,2.22131-.106a.34447.34447,0,0,1,.0531.68677s-.452.05286-.95361.07916l3.01148,8.95777.85962-2.72407A9.60383,9.60383,0,0,0,17.62573,11.57941Z"/><path class="uim-primary" d="M12,2A10,10,0,1,0,22,12,10,10,0,0,0,12,2Zm7.79492,15.25519a9.4271,9.4271,0,0,1-4.13623,3.40631A9.38753,9.38753,0,0,1,6.74475,19.795a9.432,9.432,0,0,1-3.40637-4.13629,9.38577,9.38577,0,0,1,.8667-8.91394A9.4271,9.4271,0,0,1,8.34131,3.33844a9.38753,9.38753,0,0,1,8.91394.86652,9.432,9.432,0,0,1,3.40637,4.13629,9.38577,9.38577,0,0,1-.8667,8.91394Z"/><path class="uim-primary" d="M19.36877,8.85876a7.86528,7.86528,0,0,1-.63391,2.98475L16.1897,19.20239A8.33428,8.33428,0,0,0,19.31274,8.002,6.38147,6.38147,0,0,1,19.36877,8.85876Z"/></svg>

<svg xmlns="http://www.w3.org/2000/svg" data-name="Layer 1" viewBox="0 0 24 24"><path d="M12 2.6a9.4 9.4 0 109.4 9.4A9.4 9.4 0 0012 2.6z"/><path d="M12.146 12.729l-2.5 7.265a8.337 8.337 0 005.121-.133.744.744 0 01-.06-.115zm-8.48-.73a8.334 8.334 0 004.698 7.5L4.388 8.61A8.3 8.3 0 003.667 12z"/><path d="M17.626 11.58a4.389 4.389 0 00-.687-2.299 3.903 3.903 0 01-.819-1.954 1.443 1.443 0 011.4-1.48c.037 0 .072.005.107.007a8.331 8.331 0 00-12.59 1.569c.196.006.38.01.537.01.871 0 2.22-.106 2.22-.106a.344.344 0 01.054.686s-.452.053-.954.08l3.035 9.026 1.824-5.47-1.299-3.556c-.449-.027-.874-.08-.874-.08a.344.344 0 01.053-.686s1.376.106 2.195.106c.871 0 2.221-.106 2.221-.106a.344.344 0 01.053.686s-.452.053-.953.08l3.011 8.957.86-2.724a9.604 9.604 0 00.606-2.747z"/><path d="M12 2a10 10 0 1010 10A10 10 0 0012 2zm7.795 15.255a9.427 9.427 0 01-4.136 3.406 9.388 9.388 0 01-8.914-.866 9.432 9.432 0 01-3.407-4.136 9.386 9.386 0 01.867-8.914 9.427 9.427 0 014.136-3.407 9.388 9.388 0 018.914.867 9.432 9.432 0 013.407 4.136 9.386 9.386 0 01-.867 8.914z"/><path d="M19.369 8.859a7.865 7.865 0 01-.634 2.985l-2.545 7.358a8.334 8.334 0 003.123-11.2 6.381 6.381 0 01.056.857z"/></svg>
